src/assets/header-mesh-bottom.svg

<?xml version="1.0" encoding="UTF-8" standalone="no"?>
<svg
   width="280"
   height="94"
   viewBox="0 0 74.08333 24.870834"
   version="1.1"
   id="svg8"
   inkscape:version="1.1 (c68e22c387, 2021-05-23)"
   sodipodi:docname="header-mesh-bottom-2.svg"
   xmlns:inkscape="http://www.inkscape.org/namespaces/inkscape"
   xmlns:sodipodi="http://sodipodi.sourceforge.net/DTD/sodipodi-0.dtd"
   xmlns="http://www.w3.org/2000/svg"
   xmlns:svg="http://www.w3.org/2000/svg"
   xmlns:rdf="http://www.w3.org/1999/02/22-rdf-syntax-ns#"
   xmlns:cc="http://creativecommons.org/ns#"
   xmlns:dc="http://purl.org/dc/elements/1.1/">
  <defs
     id="defs2">
    <pattern
       id="EMFhbasepattern"
       patternUnits="userSpaceOnUse"
       width="6"
       height="6"
       x="0"
       y="0" />
  </defs>
  <sodipodi:namedview
     id="base"
     pagecolor="#ffffff"
     bordercolor="#666666"
     borderopacity="1.0"
     inkscape:pageopacity="0.0"
     inkscape:pageshadow="2"
     inkscape:zoom="2"
     inkscape:cx="144.75"
     inkscape:cy="47.75"
     inkscape:document-units="px"
     inkscape:current-layer="layer1"
     inkscape:document-rotation="0"
     showgrid="true"
     units="px"
     inkscape:pagecheckerboard="true"
     borderlayer="false"
     inkscape:window-width="1920"
     inkscape:window-height="1027"
     inkscape:window-x="-8"
     inkscape:window-y="-8"
     inkscape:window-maximized="1">
    <inkscape:grid
       type="xygrid"
       id="grid2405" />
  </sodipodi:namedview>
  <metadata
     id="metadata5">
    <rdf:RDF>
      <cc:Work
         rdf:about="">
        <dc:format>image/svg+xml</dc:format>
        <dc:type
           rdf:resource="http://purl.org/dc/dcmitype/StillImage" />
      </cc:Work>
    </rdf:RDF>
  </metadata>
  <g
     inkscape:label="Layer 1"
     inkscape:groupmode="layer"
     id="layer1">
    <path
       style="display:inline;fill:#2b3a78;fill-opacity:1;stroke:none;stroke-width:0.264583px;stroke-linecap:butt;stroke-linejoin:miter;stroke-opacity:1"
       d="M 0,-12.435423 -18.52083,-2.6905324e-6 0,12.435417 18.520833,-2.6905324e-6 Z"
       id="path951" />
    <path
       style="display:inline;fill:#2c3c7a;fill-opacity:1;stroke:none;stroke-width:0.264583px;stroke-linecap:butt;stroke-linejoin:miter;stroke-opacity:1"
       d="M 37.041667,-12.435423 18.520837,-2.7605324e-6 37.041667,12.435417 55.5625,-2.7605324e-6 Z"
       id="path1313" />
    <path
       style="display:inline;fill:#2b3a78;fill-opacity:1;stroke:none;stroke-width:0.264583px;stroke-linecap:butt;stroke-linejoin:miter;stroke-opacity:1"
       d="M 74.083329,-12.435421 55.562499,0 74.083329,12.435419 92.604166,0 Z"
       id="path830" />
    <path
       style="fill:#132466;stroke:none;stroke-width:0.264583px;stroke-linecap:butt;stroke-linejoin:miter;stroke-opacity:1;fill-opacity:1"
       d="M 18.520833,0 37.041666,12.435417 V 15.08125 L 18.520833,2.6458333 Z"
       id="path2016" />
    <path
       style="fill:#0a134e;fill-opacity:1;stroke:none;stroke-width:0.264583px;stroke-linecap:butt;stroke-linejoin:miter;stroke-opacity:1"
       d="M 55.562499,0 37.041666,12.435417 V 15.08125 L 55.562499,2.6458333 Z"
       id="path2244"
       sodipodi:nodetypes="ccccc" />
    <path
       style="fill:#132466;fill-opacity:1;stroke:none;stroke-width:0.264583px;stroke-linecap:butt;stroke-linejoin:miter;stroke-opacity:1"
       d="M 55.562499,0 74.083332,12.435417 V 15.08125 L 55.562499,2.6458333 Z"
       id="path2435" />
    <path
       style="fill:#0a134e;fill-opacity:1;stroke:none;stroke-width:0.264583px;stroke-linecap:butt;stroke-linejoin:miter;stroke-opacity:1"
       d="M 18.520833,0 1.6489359e-7,12.435417 V 15.08125 L 18.520833,2.6458333 Z"
       id="path2473"
       sodipodi:nodetypes="ccccc" />
  </g>
</svg>

<svg width="280" height="94" version="1.1" viewBox="0 0 74.0833 24.8708" xmlns="http://www.w3.org/2000/svg">
 <g>
  <path d="m0-12.4354-18.5208 12.4354 18.5208 12.4354 18.5208-12.4354z" fill="#2b3a78"/>
  <path d="m37.0417-12.4354-18.5208 12.4354 18.5208 12.4354 18.5208-12.4354z" fill="#2c3c7a"/>
  <path d="m74.0833-12.4354-18.5208 12.4354 18.5208 12.4354 18.5208-12.4354z" fill="#2b3a78"/>
  <path d="m18.5208 0 18.5208 12.4354v4.7625l-18.5208-12.4354z" fill="#213271"/>
  <path d="m55.5625 0-18.5208 12.4354v4.7625l18.5208-12.4354z" fill="#17205d"/>
  <path d="m55.5625 0 18.5208 12.4354v4.7625l-18.5208-12.4354z" fill="#213271"/>
  <path d="m18.5208 0-18.5208 12.4354 3.29787e-7 4.7625 18.5208-12.4354z" fill="#17205d"/>
 </g>
</svg>
